docs/images/single-tenant/component-security-proxy-icon.svg

<?xml version="1.0" encoding="UTF-8" standalone="no"?>
<svg width="117px" height="126px" viewBox="0 0 117 126" version="1.1" xmlns="http://www.w3.org/2000/svg" xmlns:xlink="http://www.w3.org/1999/xlink">
    <!-- Generator: sketchtool 39.1 (31720) - http://www.bohemiancoding.com/sketch -->
    <title>80221D8D-2F0C-4022-B486-C05090A890D8</title>
    <desc>Created with sketchtool.</desc>
    <defs></defs>
    <g id="Onegini-Documentation" stroke="none" stroke-width="1" fill="none" fill-rule="evenodd">
        <g id="Onegini-Documentation---Landing-Page" transform="translate(-581.000000, -1437.000000)" fill="#00AEEF">
            <g id="Key-Components" transform="translate(110.000000, 1285.000000)">
                <g id="Security-Proxy" transform="translate(374.000000, 85.000000)">
                    <g id="shield" transform="translate(97.000000, 67.000000)">
                        <path d="M111.660161,20.856721 C87.273414,18.5728106 67.3717525,5.52372709 60.8106539,0.750610998 C59.43946,-0.250203666 57.5813001,-0.250203666 56.2101062,0.750610998 C49.6616944,5.52372709 29.760161,18.5728106 5.37341402,20.856721 C2.43880285,21.1262994 0.183381161,23.5641813 0.132121577,26.5153014 C-0.16262103,45.7745682 2.92576889,111.160998 57.0430745,125.711432 C58.0041917,125.968051 59.0165685,125.968051 59.9776857,125.711432 C114.094991,111.173957 117.183253,45.7744399 116.901325,26.5153014 C116.862881,23.5641813 114.594644,21.1262994 111.660161,20.856721 Z M76.03488,58.3918665 L74.9979627,58.3918665 L74.9979627,53.5611396 C74.9979627,44.6263409 67.8747867,37.1625914 58.971664,37.0032649 C58.7283973,36.9989117 58.2423013,36.9989117 57.999144,37.0032649 C49.0958027,37.1625914 41.972736,44.6263409 41.972736,53.5611396 L41.972736,58.3918665 L40.9357093,58.3918665 C39.3376933,58.3918665 38.0342213,60.0332341 38.0342213,62.0604025 L38.0342213,86.289347 C38.0342213,88.31423 39.3376933,89.9709425 40.9358187,89.9709425 L76.03488,89.9709425 C77.632896,89.9709425 78.9364773,88.31423 78.9364773,86.289347 L78.9364773,62.0604025 C78.9364773,60.0333429 77.6330053,58.3918665 76.03488,58.3918665 Z M61.7736587,74.1502793 L61.7736587,81.4713532 C61.7736587,82.3096674 61.068568,83.0191273 60.2257173,83.0191273 L56.7452,83.0191273 C55.90224,83.0191273 55.1971493,82.3096674 55.1971493,81.4713532 L55.1971493,74.1502793 C54.379664,73.3492936 53.903736,72.2417351 53.903736,71.0165318 C53.903736,68.6947618 55.706752,66.6996982 57.9992533,66.6075195 C58.242192,66.5977248 58.7288347,66.5977248 58.9717733,66.6075195 C61.2642747,66.6996982 63.0672907,68.6947618 63.0672907,71.0165318 C63.067072,72.2417351 62.591144,73.3492936 61.7736587,74.1502793 Z M68.163536,58.3918665 L58.971664,58.3918665 L57.999144,58.3918665 L48.807272,58.3918665 L48.807272,53.5611396 C48.807272,48.2388296 53.152616,43.8380883 58.4853493,43.8380883 C63.8180827,43.8380883 68.1636453,48.2388296 68.1636453,53.5611396 L68.1636453,58.3918665 L68.163536,58.3918665 Z" id="Combined-Shape"></path>
                    </g>
                </g>
            </g>
        </g>
    </g>
</svg>

<svg width="117" height="126" viewBox="0 0 117 126" xmlns="http://www.w3.org/2000/svg"><title>Onegini Security Proxy</title><path d="M111.66 20.857C87.273 18.573 67.372 5.524 60.81.75a3.9 3.9 0 0 0-4.6 0C49.662 5.524 29.76 18.573 5.373 20.857a5.774 5.774 0 0 0-5.24 5.658c-.296 19.26 2.793 84.646 56.91 99.196a5.69 5.69 0 0 0 2.935 0c54.117-14.537 57.205-79.937 56.923-99.196a5.764 5.764 0 0 0-5.24-5.658zM76.035 58.392h-1.037v-4.83c0-8.936-7.123-16.4-16.026-16.559-.244-.004-.73-.004-.973 0-8.903.16-16.026 7.623-16.026 16.558v4.83h-1.037c-1.598 0-2.902 1.642-2.902 3.67v24.228c0 2.025 1.304 3.682 2.902 3.682h35.099c1.598 0 2.901-1.657 2.901-3.682V62.06c0-2.027-1.303-3.668-2.901-3.668zM61.774 74.15v7.321c0 .839-.705 1.548-1.548 1.548h-3.48c-.844 0-1.549-.71-1.549-1.548v-7.32c-.817-.802-1.293-1.91-1.293-3.134 0-2.322 1.803-4.317 4.095-4.41.243-.01.73-.01.973 0 2.292.093 4.095 2.088 4.095 4.41 0 1.225-.476 2.332-1.293 3.133zm6.39-15.758H48.807v-4.83c0-5.323 4.346-9.724 9.678-9.724 5.333 0 9.679 4.4 9.679 9.723v4.83z" fill="#EB4D00" fill-rule="evenodd"/></svg>
